src/lib/packages/icons/src/assets/filled/inbox-upload.svg

<svg width="24" height="24" viewBox="0 0 24 24" fill="none" xmlns="http://www.w3.org/2000/svg">
<path d="M21.75 13.616V18C21.75 20.418 20.418 21.75 18 21.75H6C3.582 21.75 2.25 20.418 2.25 18V13.616C2.25 13.107 2.35198 12.611 2.55298 12.14L4.53198 7.523C5.03298 6.354 5.506 5.24999 7.979 5.24999C8.393 5.24999 8.729 5.58599 8.729 5.99999C8.729 6.41399 8.393 6.74999 7.979 6.74999C6.495 6.74999 6.35989 7.06601 5.91089 8.11401L4.03101 12.5H6.95605C8.11605 12.5 9.19504 13.159 9.84204 14.263C10.288 15.026 11.115 15.5 12.001 15.5C12.887 15.5 13.7139 15.026 14.1599 14.263C14.8059 13.159 15.8859 12.5 17.0459 12.5H19.9719L18.0911 8.11401C17.6421 7.06601 17.5069 6.74999 16.0229 6.74999C15.6089 6.74999 15.2729 6.41399 15.2729 5.99999C15.2729 5.58599 15.6089 5.24999 16.0229 5.24999C18.4969 5.24999 18.969 6.354 19.47 7.523L21.449 12.139C21.648 12.61 21.75 13.107 21.75 13.616ZM10.53 4.52999L11.25 3.80999V9.99999C11.25 10.414 11.586 10.75 12 10.75C12.414 10.75 12.75 10.414 12.75 9.99999V3.811L13.47 4.531C13.616 4.677 13.808 4.751 14 4.751C14.192 4.751 14.384 4.678 14.53 4.531C14.823 4.238 14.823 3.76299 14.53 3.46999L12.53 1.46999C12.461 1.40099 12.3779 1.34601 12.2859 1.30801C12.1029 1.23201 11.8959 1.23201 11.7129 1.30801C11.6209 1.34601 11.538 1.40099 11.469 1.46999L9.46899 3.46999C9.17599 3.76299 9.17599 4.238 9.46899 4.531C9.76299 4.823 10.237 4.82299 10.53 4.52999Z" fill="currentColor"/>
</svg>

<svg xmlns="http://www.w3.org/2000/svg" width="24" height="24" fill="none"><path fill="currentColor" d="M21.75 13.616V18c0 2.418-1.332 3.75-3.75 3.75H6c-2.418 0-3.75-1.332-3.75-3.75v-4.384c0-.509.102-1.005.303-1.476l1.979-4.617c.501-1.169.974-2.273 3.447-2.273a.75.75 0 0 1 0 1.5c-1.484 0-1.62.316-2.068 1.364L4.03 12.5h2.925c1.16 0 2.239.659 2.886 1.763A2.508 2.508 0 0 0 12 15.5c.886 0 1.713-.474 2.159-1.237.646-1.104 1.726-1.763 2.886-1.763h2.926l-1.88-4.386c-.45-1.048-.585-1.364-2.07-1.364a.75.75 0 0 1 0-1.5c2.475 0 2.947 1.104 3.448 2.273l1.979 4.616c.199.471.301.968.301 1.477ZM10.53 4.53l.72-.72V10a.75.75 0 0 0 1.5 0V3.811l.72.72a.748.748 0 0 0 1.06 0 .75.75 0 0 0 0-1.061l-2-2a.75.75 0 0 0-.817-.162.748.748 0 0 0-.244.162l-2 2a.75.75 0 1 0 1.061 1.06Z"/></svg>
